X:1
T:Doodle Let Me Go
M:6/8
L:1/4
K:Bb
 F/2| F G/2 A B/2| c/2c/2d/2 e3/2| d c/2 B A/2| B3/2 d3/2| c3/2- c F/2|\
 A B/2 c3/2| B G/2 E F/2| F- F3/2 z/2| F G/2 A B/2| c d/2 e3/2| d c/2 B d/2|\
 c3/2 A3/2| c3/2- c F/2| A B/2 c3/2| B G/2 F F/2| F- F3/2||
